src/pos-icons/file-percent.svg

<svg height="24" viewBox="0 0 24 24" width="24" xmlns="http://www.w3.org/2000/svg"><path d="m14 2 6 6v12a2 2 0 0 1 -2 2h-12a2 2 0 0 1 -2-2v-16a2 2 0 0 1 2-2zm-6.63 18 7.63-7.65-1.35-1.35-7.65 7.65zm5.63-11h5.5l-5.5-5.5zm-5.5 2a1.5 1.5 0 0 0 -1.5 1.5 1.5 1.5 0 0 0 1.5 1.5 1.5 1.5 0 0 0 1.5-1.5 1.5 1.5 0 0 0 -1.5-1.5m6 6a1.5 1.5 0 0 0 -1.5 1.5 1.5 1.5 0 0 0 1.5 1.5 1.5 1.5 0 0 0 1.5-1.5 1.5 1.5 0 0 0 -1.5-1.5z"/></svg>

<?xml version="1.0" encoding="UTF-8"?><!DOCTYPE svg PUBLIC "-//W3C//DTD SVG 1.1//EN" "http://www.w3.org/Graphics/SVG/1.1/DTD/svg11.dtd"><svg xmlns="http://www.w3.org/2000/svg" xmlns:xlink="http://www.w3.org/1999/xlink" version="1.1" id="mdi-file-percent" width="24" height="24" viewBox="0 0 24 24"><path d="M14,2L20,8V20A2,2 0 0,1 18,22H6A2,2 0 0,1 4,20V4A2,2 0 0,1 6,2H14M7.37,20L15,12.35L13.65,11L6,18.65L7.37,20M13,9H18.5L13,3.5V9M7.5,11A1.5,1.5 0 0,0 6,12.5A1.5,1.5 0 0,0 7.5,14A1.5,1.5 0 0,0 9,12.5A1.5,1.5 0 0,0 7.5,11M13.5,17A1.5,1.5 0 0,0 12,18.5A1.5,1.5 0 0,0 13.5,20A1.5,1.5 0 0,0 15,18.5A1.5,1.5 0 0,0 13.5,17Z" /></svg>
